X:288
T:Scotchman's Dance,The,in "The Northern Lass". (p)1687.PLFD.288
T:Highlander's March,The. (p)1687.PLFD.288
M:4/4
L:1/4
Q:1/2=90
S:Playford, Dancing Master,7th Ed,1st Supp,1687.
R:.March
O:England
H:1687.
Z:Chris Partington
K:G
B|G/G/GB2|A>AAE|G/G/GB2|G>GGD|G/F/G/A/ B/G/A/B/|A/G/A/B/ A/G/A/E/|
G/F/G/A/ B/G/A/B/|G/F/G/D/ B,/A,/B,/G,/|G/F/Gd2|c/B/c/d/c>c|B/A/Be2|
A>AAE|G/F/G/A/BA/B/|GDB,G,|G/F/G/A/ d/c/d/e/|c/B/c/d/ c/d/c/A/|
B/A/B/d/ e/d/e/B/|A>AAE|G/G/GB2|G>GGb|g/g/ggb|
a>aae|g/g/ggb|g>fgd|g/f/g/a/ba/g/|a>aae|
g/f/g/a/ba/b/|g>fgd|egde|BdAD|g>de>c|d/c/B/A/GD|]
